icons/bug-24.svg

<svg width="24" height="24" viewBox="0 0 24 24" fill="none" xmlns="http://www.w3.org/2000/svg">
<path fill-rule="evenodd" clip-rule="evenodd" d="M7.71963 0.21967C8.01253 -0.0732233 8.4874 -0.0732233 8.78029 0.21967L9.98378 1.42315C10.6005 1.15108 11.2826 1 12 1C12.7173 1 13.3994 1.15108 14.0162 1.42315L15.2196 0.21967C15.5125 -0.0732233 15.9874 -0.0732233 16.2803 0.21967C16.5732 0.512563 16.5732 0.987437 16.2803 1.28033L15.309 2.25158C16.346 3.16772 17 4.50749 17 6L17 7.10352C17.9416 7.36984 18.6779 8.12518 18.9172 9.07784L20.9146 8.07918C21.285 7.89394 21.7355 8.04411 21.9208 8.41459C22.106 8.78507 21.9559 9.23558 21.5854 9.42082L19 10.7135V13.5009L22.2509 13.5044C22.6652 13.5049 23.0005 13.8411 23 14.2553C22.9995 14.6695 22.6633 15.0049 22.2491 15.0044L19 15.0009V16C19 16.5812 18.9291 17.1458 18.7957 17.6857C18.809 17.6915 18.8222 17.6976 18.8354 17.7042L21.5854 19.0792C21.9559 19.2644 22.106 19.7149 21.9208 20.0854C21.7355 20.4559 21.285 20.6061 20.9146 20.4208L18.2769 19.102C17.1332 21.4118 14.752 23 12 23C9.31019 23 6.97475 21.4829 5.80263 19.2577L3.0454 20.4394C2.66468 20.6026 2.22377 20.4262 2.06061 20.0455C1.89744 19.6648 2.0738 19.2238 2.45453 19.0607L5.25044 17.8624C5.08717 17.2694 4.99996 16.6449 4.99996 16V15.0044H1.75C1.33579 15.0044 1 14.6686 1 14.2544C1 13.8402 1.33579 13.5044 1.75 13.5044H4.99996V10.7135L2.41455 9.42082C2.04407 9.23558 1.8939 8.78507 2.07914 8.41459C2.26439 8.04411 2.71489 7.89394 3.08537 8.07918L5.0827 9.07784C5.32202 8.12518 6.05833 7.36984 6.99996 7.10352L6.99997 6C6.99997 4.5075 7.6539 3.16773 8.69089 2.25159L7.71963 1.28033C7.42674 0.987437 7.42674 0.512563 7.71963 0.21967ZM8.49996 7H15.5L15.5 6C15.5 4.067 13.933 2.5 12 2.5C10.067 2.5 8.49997 4.067 8.49997 6L8.49996 7ZM6.49996 10.2662C6.50018 10.2558 6.50018 10.2453 6.49996 10.2349V9.75C6.49996 9.05964 7.05961 8.5 7.74996 8.5H16.25C16.9403 8.5 17.5 9.05964 17.5 9.75V10.2349C17.4997 10.2453 17.4997 10.2558 17.5 10.2662V16C17.5 19.0376 15.0375 21.5 12 21.5C8.9624 21.5 6.49996 19.0376 6.49996 16V10.2662Z" fill="black"/>
</svg>

<svg xmlns="http://www.w3.org/2000/svg" width="24" height="24" viewBox="0 0 24 24"><path fill-rule="evenodd" d="M7.72.22a.75.75 0 011.06 0l1.204 1.203A4.983 4.983 0 0112 1c.717 0 1.4.151 2.016.423L15.22.22a.75.75 0 011.06 1.06l-.971.972A4.988 4.988 0 0117 6v1.104a2.755 2.755 0 011.917 1.974l1.998-.999a.75.75 0 01.67 1.342L19 10.714V13.5l3.25.003a.75.75 0 110 1.5L19 15.001V16a7.02 7.02 0 01-.204 1.686.833.833 0 01.04.018l2.75 1.375a.75.75 0 11-.671 1.342l-2.638-1.319A7 7 0 0112 23a7 7 0 01-6.197-3.742l-2.758 1.181a.75.75 0 11-.59-1.378l2.795-1.199A7.007 7.007 0 015 16v-.996H1.75a.75.75 0 010-1.5H5v-2.79L2.415 9.42a.75.75 0 01.67-1.342l1.998.999A2.755 2.755 0 017 7.104V6a4.99 4.99 0 011.69-3.748l-.97-.972a.75.75 0 010-1.06zM8.5 7h7V6a3.5 3.5 0 10-7 0v1zm-2 3.266V9.75c0-.69.56-1.25 1.25-1.25h8.5c.69 0 1.25.56 1.25 1.25V16a5.5 5.5 0 01-11 0v-5.734z"/></svg>
